X: 197
T: Jockey
B: 204 Favourite Country Dances
N: Published by Straight & Skillern, London ca.1775
F: http://imslp.org/wiki/204_Favourite_Country_Dances_(Various) p.99 #197
Z: 2014 John Chambers <jc:trillian.mit.edu>
M: C|
L: 1/8
K: D
% - - - - - - - - - - - - - - - - - - - - - - - - -
A>G |\
F<DD>E D2E<F | G<EE>F E2F<G |\
A<dA<F GFED | E6 A>G |\
F<DD>E D2d<B | ^G<EE>F E2B<c |\
d<F e/d/c/B/ A2^G2 | A6 :|
|: A>c |\
d2 f<d B2 g>f | e<dc<B ^A3F |\
B2c<d e<dc<d | B6 B<d |\
A<FD>E D2E<F | G<EE>F E2F<G |\
A<c d<f g>fe>f | d6 :|
% - - - - - - - - - - - - - - - - - - - - - - - - -
%%begintext align
%% Cast off 2. Cu. .| up again .|. Cross over one
%% Cu. and turn your Partner lead thro' the Top
%% and Cast off .|: foot it 6 & Right and Left :||:
%%endtext

%%sep 1 1 500
%%sep 1 1 500
